X: 399
T: A Tribute To Elizabeth Beaton
R: strathspey
M: 4/4
K: Amajor
E<D|C<E- E2 E2 E<A|F2 D2 E2 E<D|C<E- E2 c2 c<e|d>cBA F2 E<D|
C<E- E2 E2 A2|F2 A2 E2 d2|c2 c<e d>cBA|E2 A2 A2:|
ed|c/B/A- A2 E2 A2|c2 e2 a3 c|d2 f2 B3 a|b>agf e2 d2|
c2 e2 e2 A2|c e3 a2 c2|d<B- B2 e2 ed|c<A- A2 A2 ed|
c/B/A- A2 E2 A2|c2 e2 a3 c|d2 f2 B2 f2|b>agf e2 d2|
c2 e2 A2 c2|F2 A2 D2 d2|c2 c<e d>cBA|E2 A2 A2||

